assets/svg/1F201.svg

<svg xmlns="http://www.w3.org/2000/svg" viewBox="0 0 64 64" enable-background="new 0 0 64 64"><path fill="#1b75bb" d="M64.195,57.025c0,3.81-3.084,6.894-6.89,6.894H7.166c-3.803,0-6.887-3.084-6.887-6.894V6.889   C0.278,3.086,3.363,0,7.166,0h50.14c3.806,0,6.89,3.086,6.89,6.889V57.025z"/><path fill="#0867a3" d="m.278 48.67v8.355c0 3.81 3.084 6.894 6.887 6.894h50.14c3.806 0 6.89-3.084 6.89-6.894v-50.14c-10.914 39.647-50.15 42.16-63.917 41.781"/><g fill="#fff"><path d="m30.912 20.593c0 1.249-1.01 2.26-2.258 2.26h-22.429c-1.247 0-2.258-1.01-2.258-2.26l0 0c0-1.245 1.01-2.258 2.258-2.258h22.429c1.246 0 2.258 1.013 2.258 2.258l0 0"/><path d="m28.654 18.335c1.247 0 2.258 1.013 2.258 2.258v22.429c0 1.249-1.01 2.258-2.258 2.258l0 0c-1.249 0-2.258-1.01-2.258-2.258v-22.429c0-1.245 1.01-2.258 2.258-2.258l0 0"/><path d="m3.967 43.02c0-1.246 1.013-2.258 2.258-2.258h22.429c1.249 0 2.258 1.012 2.258 2.258l0 0c0 1.249-1.01 2.258-2.258 2.258h-22.429c-1.245 0-2.258-1.01-2.258-2.258l0 0"/><path d="m60.5 20.593c0 1.249-1.01 2.26-2.258 2.26h-22.429c-1.246 0-2.257-1.01-2.257-2.26l0 0c0-1.245 1.01-2.258 2.257-2.258h22.429c1.247 0 2.258 1.013 2.258 2.258l0 0"/><path d="m58.25 18.335c1.247 0 2.258 1.013 2.258 2.258v22.429c0 1.249-1.01 2.258-2.258 2.258l0 0c-1.246 0-2.26-1.01-2.26-2.258v-22.429c0-1.245 1.014-2.258 2.26-2.258l0 0"/><path d="m33.561 43.02c0-1.246 1.01-2.258 2.257-2.258h22.429c1.247 0 2.258 1.012 2.258 2.258l0 0c0 1.249-1.01 2.258-2.258 2.258h-22.43c-1.246 0-2.256-1.01-2.256-2.258l0 0"/></g></svg>

<?xml version="1.0" encoding="UTF-8" standalone="no"?>
<!-- Generator: Adobe Illustrator 16.0.0, SVG Export Plug-In . SVG Version: 6.00 Build 0)  -->

<svg
   xmlns:dc="http://purl.org/dc/elements/1.1/"
   xmlns:cc="http://creativecommons.org/ns#"
   xmlns:rdf="http://www.w3.org/1999/02/22-rdf-syntax-ns#"
   xmlns:svg="http://www.w3.org/2000/svg"
   xmlns="http://www.w3.org/2000/svg"
   xmlns:sodipodi="http://sodipodi.sourceforge.net/DTD/sodipodi-0.dtd"
   xmlns:inkscape="http://www.inkscape.org/namespaces/inkscape"
   version="1.1"
   id="Layer_1"
   x="0px"
   y="0px"
   width="64px"
   height="64px"
   viewBox="0 0 64 64"
   enable-background="new 0 0 64 64"
   xml:space="preserve"
   inkscape:version="0.48.5 r10040"
   sodipodi:docname="1F201.svg"
   inkscape:export-filename="D:\TESTINGEMOJI\SVGTEST\1F201.png"
   inkscape:export-xdpi="90"
   inkscape:export-ydpi="90"><metadata
   id="metadata4837"><rdf:RDF><cc:Work
       rdf:about=""><dc:format>image/svg+xml</dc:format><dc:type
         rdf:resource="http://purl.org/dc/dcmitype/StillImage" /><dc:title></dc:title></cc:Work></rdf:RDF></metadata><defs
   id="defs4835" /><sodipodi:namedview
   pagecolor="#ffffff"
   bordercolor="#666666"
   borderopacity="1"
   objecttolerance="10"
   gridtolerance="10"
   guidetolerance="10"
   inkscape:pageopacity="0"
   inkscape:pageshadow="2"
   inkscape:window-width="640"
   inkscape:window-height="480"
   id="namedview4833"
   showgrid="false"
   inkscape:zoom="3.6875"
   inkscape:cx="32"
   inkscape:cy="32"
   inkscape:window-x="400"
   inkscape:window-y="231"
   inkscape:window-maximized="0"
   inkscape:current-layer="Layer_1" />
<g
   id="g4813">
	<path
   fill="#1B75BB"
   d="M64.195,57.025c0,3.81-3.084,6.894-6.89,6.894H7.166c-3.803,0-6.887-3.084-6.887-6.894V6.889   C0.278,3.086,3.363,0,7.166,0h50.14c3.806,0,6.89,3.086,6.89,6.889V57.025z"
   id="path4815" />
	<path
   fill="#0867A3"
   d="M0.278,48.67v8.355c0,3.81,3.084,6.894,6.887,6.894h50.14c3.806,0,6.89-3.084,6.89-6.894V6.889   C53.281,46.536,14.045,49.049,0.278,48.67z"
   id="path4817" />
	<g
   id="g4819">
		<path
   fill="#FFFFFF"
   d="M30.912,20.593c0,1.249-1.011,2.26-2.258,2.26H6.225c-1.247,0-2.258-1.011-2.258-2.26l0,0    c0-1.245,1.011-2.258,2.258-2.258h22.429C29.9,18.335,30.912,19.348,30.912,20.593L30.912,20.593z"
   id="path4821" />
		<path
   fill="#FFFFFF"
   d="M28.654,18.335c1.247,0,2.258,1.013,2.258,2.258v22.429c0,1.249-1.011,2.258-2.258,2.258l0,0    c-1.249,0-2.258-1.009-2.258-2.258V20.593C26.396,19.348,27.405,18.335,28.654,18.335L28.654,18.335z"
   id="path4823" />
		<path
   fill="#FFFFFF"
   d="M3.967,43.021c0-1.246,1.013-2.258,2.258-2.258h22.429c1.249,0,2.258,1.012,2.258,2.258l0,0    c0,1.249-1.009,2.258-2.258,2.258H6.225C4.98,45.279,3.967,44.271,3.967,43.021L3.967,43.021z"
   id="path4825" />
		<path
   fill="#FFFFFF"
   d="M60.504,20.593c0,1.249-1.011,2.26-2.258,2.26H35.817c-1.246,0-2.257-1.011-2.257-2.26l0,0    c0-1.245,1.011-2.258,2.257-2.258h22.429C59.493,18.335,60.504,19.348,60.504,20.593L60.504,20.593z"
   id="path4827" />
		<path
   fill="#FFFFFF"
   d="M58.246,18.335c1.247,0,2.258,1.013,2.258,2.258v22.429c0,1.249-1.011,2.258-2.258,2.258l0,0    c-1.246,0-2.26-1.009-2.26-2.258V20.593C55.986,19.348,57,18.335,58.246,18.335L58.246,18.335z"
   id="path4829" />
		<path
   fill="#FFFFFF"
   d="M33.561,43.021c0-1.246,1.011-2.258,2.257-2.258h22.429c1.247,0,2.258,1.012,2.258,2.258l0,0    c0,1.249-1.011,2.258-2.258,2.258H35.817C34.571,45.279,33.561,44.271,33.561,43.021L33.561,43.021z"
   id="path4831" />
	</g>
</g>
</svg>
